X: 5
T: Et qui la dira / Dieu gard celle
N: Derived from Jap3005-Et_qui_la_dira__Dieu_gard_celle.krn
C: Jean Japart
%%abc-version 2.0
%%abcx-abcm2ps-target-version 5.9.1 (29 Sep 2008)
%%abc-creator hum2abc beta
%%abcx-conversion-date 2019/02/16 20:40:05
%%abc-edited-by Jesse Rodin
%%abc-edited-by Chris Gage 09-04-2013
%%abcx-initial-encoding-date 2013/10/23/
%%humdrum-veritas 3198797185
%%humdrum-veritas-data 4291283521
%%linebreak <none>
%%barnumbers 0
L: 1/4
M: 2/1
Q: 1/2=120
%%staves [1 2 3 4]
V: 1 clef=treble
V: 2 clef=treble-8
V: 3 clef=treble-8
V: 4 clef=bass
K: F
[V:1] G6A2 | 
[V:2] z8 | 
[V:3] G4G4 | 
[V:4] G,8 | 
[V:1] B4c3B | 
[V:2] z8 | 
[V:3] G4E4 | 
[V:4] E,4C,4 | 
[V:1] A3BG4 | 
[V:2] z8 | 
[V:3] F4G4 | 
[V:4] D,2F,2E,4 | 
[V:1] F8 | 
[V:2] d8 | 
[V:3] A8 | 
[V:4] D,8 | 
[V:1] G4B4 | 
[V:2] e4e4 | 
[V:3] z8 | 
[V:4] G,8 | 
[V:1] A2c3BA2 | 
[V:2] f8 | 
[V:3] c4c4 | 
[V:4] F,8 | 
[V:1] G2B3AG2 | 
[V:2] d8 | 
[V:3] B4G4 | 
[V:4] G,6F,E, | 
[V:1] F2G4^F2 | 
[V:2] d4d4 | 
[V:3] A4A4 | 
[V:4] D,8 | 
[V:1] G6F2 | 
[V:2] B8 | 
[V:3] G8- | 
[V:4] _E,6D,2 | 
[V:1] E2D2E4 | 
[V:2] c8 | 
[V:3] G8 | 
[V:4] C,2B,,2C,4 | 
[V:1] D8- | 
[V:2] B4A4 | 
[V:3] z8 | 
[V:4] G,,2G,4^F,2 | 
[V:1] D8 | 
[V:2] G4B4- | 
[V:3] z8 | 
[V:4] G,4D,4 | 
[V:1] z4d4- | 
[V:2] B2A2G4- | 
[V:3] G4G4 | 
[V:4] G,,4B,,4 | 
[V:1] d4c4 | 
[V:2] G4^F4 | 
[V:3] A4A4 | 
[V:4] A,,8 | 
[V:1] B6AG | 
[V:2] G4z4 | 
[V:3] B4B4 | 
[V:4] G,,8 | 
[V:1] F8 | 
[V:2] z4d4 | 
[V:3] A4A4 | 
[V:4] D,8 | 
[V:1] G2A2B4- | 
[V:2] e4e4 | 
[V:3] G4G4 | 
[V:4] z4G,4 | 
[V:1] B2A2A4- | 
[V:2] f8 | 
[V:3] A4A4 | 
[V:4] F,8 | 
[V:1] A4G4 | 
[V:2] d8 | 
[V:3] B4B4 | 
[V:4] G,8 | 
[V:1] A4A4 | 
[V:2] d4d4 | 
[V:3] A8 | 
[V:4] D,8 | 
[V:1] z4B4 | 
[V:2] B8 | 
[V:3] z8 | 
[V:4] G,,4G,4 | 
[V:1] A2B2c2A2- | 
[V:2] c8 | 
[V:3] z8 | 
[V:4] A,4F,4 | 
[V:1] AGG4^F2 | 
[V:2] B4A4 | 
[V:3] z8 | 
[V:4] G,4D,4 | 
[V:1] G4D4 | 
[V:2] G4B4- | 
[V:3] z8 | 
[V:4] G,,4z4 | 
[V:1] z4G4 | 
[V:2] B2A2G4- | 
[V:3] z8 | 
[V:4] G,,3A,,B,,2C,2- | 
[V:1] A4c4 | 
[V:2] G2^F2^F2E2 | 
[V:3] z8 | 
[V:4] C,B,,A,,G,,A,,4 | 
[V:1] B2d4cB | 
[V:2] G8 | 
[V:3] z8 | 
[V:4] G,,8 | 
[V:1] cBAGF2G2 | 
[V:2] z4B4 | 
[V:3] A4d4 | 
[V:4] z8 | 
[V:1] A2G4^F2 | 
[V:2] A4A4 | 
[V:3] d4c4 | 
[V:4] z8 | 
[V:1] G4B4- | 
[V:2] G6A2 | 
[V:3] d4B4 | 
[V:4] G,,4G,4- | 
[V:1] B2A2G2FE | 
[V:2] B4c4 | 
[V:3] G8 | 
[V:4] G,4C,4 | 
[V:1] F8 | 
[V:2] A6B2 | 
[V:3] z8 | 
[V:4] D,4F,4- | 
[V:1] z4E4 | 
[V:2] c8 | 
[V:3] z8 | 
[V:4] F,2E,D,C,4 | 
[V:1] F6G2 | 
[V:2] z8 | 
[V:3] A4B4 | 
[V:4] D,8 | 
[V:1] E2G4^F2 | 
[V:2] z4d4 | 
[V:3] c4A4 | 
[V:4] C,4D,4 | 
[V:1] G2B3cd2- | 
[V:2] d4d4 | 
[V:3] G4G4 | 
[V:4] G,,8 | 
[V:1] dcA3GA2 | 
[V:2] A4d4- | 
[V:3] F8 | 
[V:4] D,8 | 
[V:1] B4c2A2- | 
[V:2] d4c4 | 
[V:3] z8 | 
[V:4] G,4A,2F,2 | 
[V:1] A2GFG4 | 
[V:2] B8 | 
[V:3] z8 | 
[V:4] G,4G,3F, | 
[V:1] A8 | 
[V:2] A8 | 
[V:3] z8 | 
[V:4] D,4A,,4 | 
[V:1] D4E4 | 
[V:2] z8 | 
[V:3] G4G4 | 
[V:4] B,,4C,4 | 
[V:1] D2G3FE2- | 
[V:2] z8 | 
[V:3] G4E4 | 
[V:4] G,,4C,4 | 
[V:1] E2D4^C2 | 
[V:2] d4e4 | 
[V:3] F4G4 | 
[V:4] D,2F,2E,4 | 
[V:1] D4z4 | 
[V:2] f4d4 | 
[V:3] A8 | 
[V:4] D,4D,3E, | 
[V:1] A4B4 | 
[V:2] c4B4 | 
[V:3] z8 | 
[V:4] F,4G,4 | 
[V:1] A3GA2G2- | 
[V:2] z4c4 | 
[V:3] z8 | 
[V:4] D,4C,4 | 
[V:1] G2^F2G4 | 
[V:2] B2A2G2B2- | 
[V:3] z8 | 
[V:4] D,4G,,2G,2- | 
[V:1] B4A4 | 
[V:2] BAG4^F2 | 
[V:3] d4d4 | 
[V:4] G,2G,2D,4 | 
[V:1] G2B3Ac2- | 
[V:2] G4z4 | 
[V:3] B4G4 | 
[V:4] _E,3D,E,2C,2- | 
[V:1] cBAG^F3E | 
[V:2] z4d4 | 
[V:3] A4A4 | 
[V:4] C,2C,2D,4 | 
[V:1] G8 |]  
[V:2] d8 |]  
[V:3] G8 |]  
[V:4] G,,8 |]  



